public/cards/diamonds_7.svg

<?xml version="1.0" encoding="UTF-8" standalone="no"?>
<!-- Created with Inkscape (http://www.inkscape.org/) -->

<svg
   xmlns:dc="http://purl.org/dc/elements/1.1/"
   xmlns:cc="http://creativecommons.org/ns#"
   xmlns:rdf="http://www.w3.org/1999/02/22-rdf-syntax-ns#"
   xmlns:svg="http://www.w3.org/2000/svg"
   xmlns="http://www.w3.org/2000/svg"
   xmlns:sodipodi="http://sodipodi.sourceforge.net/DTD/sodipodi-0.dtd"
   xmlns:inkscape="http://www.inkscape.org/namespaces/inkscape"
   width="234"
   height="333.00003"
   id="svg2"
   version="1.1"
   inkscape:version="0.92.4 (5da689c313, 2019-01-14)"
   sodipodi:docname="diamonds_7.svg"
   inkscape:export-filename="C:\Users\fowle\OneDrive\Projects\Playing-Cards\fronts\png-096-dpi\diamonds_7.png"
   inkscape:export-xdpi="96"
   inkscape:export-ydpi="96">
  <title
     id="title918">Seven of Diamonds Playing Card</title>
  <defs
     id="defs4" />
  <sodipodi:namedview
     id="base"
     pagecolor="#ffffff"
     bordercolor="#666666"
     borderopacity="1.0"
     inkscape:pageopacity="0.0"
     inkscape:pageshadow="2"
     inkscape:zoom="2.1916676"
     inkscape:cx="115.24026"
     inkscape:cy="166.80162"
     inkscape:document-units="px"
     inkscape:current-layer="layer1"
     showgrid="false"
     inkscape:showpageshadow="false"
     showguides="true"
     inkscape:guide-bbox="true"
     inkscape:snap-global="true"
     inkscape:window-width="1456"
     inkscape:window-height="976"
     inkscape:window-x="424"
     inkscape:window-y="21"
     inkscape:window-maximized="0"
     showborder="false"
     fit-margin-top="0"
     fit-margin-left="0"
     fit-margin-right="0"
     fit-margin-bottom="0">
    <inkscape:grid
       type="xygrid"
       id="grid3767"
       empspacing="5"
       visible="true"
       enabled="true"
       snapvisiblegridlinesonly="true"
       originx="0"
       originy="1.0333214e-05" />
  </sodipodi:namedview>
  <metadata
     id="metadata7">
    <rdf:RDF>
      <cc:Work
         rdf:about="">
        <dc:format>image/svg+xml</dc:format>
        <dc:type
           rdf:resource="http://purl.org/dc/dcmitype/StillImage" />
        <dc:title>Seven of Diamonds Playing Card</dc:title>
        <cc:license
           rdf:resource="http://creativecommons.org/publicdomain/zero/1.0/" />
        <dc:date>2020-05-05</dc:date>
        <dc:creator>
          <cc:Agent>
            <dc:title>Daniel S. Fowler</dc:title>
          </cc:Agent>
        </dc:creator>
        <dc:rights>
          <cc:Agent>
            <dc:title>Public Domain</dc:title>
          </cc:Agent>
        </dc:rights>
        <dc:publisher>
          <cc:Agent>
            <dc:title>https://tekeye.uk</dc:title>
          </cc:Agent>
        </dc:publisher>
        <dc:language>en-GB</dc:language>
        <dc:subject>
          <rdf:Bag>
            <rdf:li>seven; diamonds; playing; card; white; red;</rdf:li>
          </rdf:Bag>
        </dc:subject>
        <dc:description>A seven of diamonds playing card.</dc:description>
      </cc:Work>
      <cc:License
         rdf:about="http://creativecommons.org/publicdomain/zero/1.0/">
        <cc:permits
           rdf:resource="http://creativecommons.org/ns#Reproduction" />
        <cc:permits
           rdf:resource="http://creativecommons.org/ns#Distribution" />
        <cc:permits
           rdf:resource="http://creativecommons.org/ns#DerivativeWorks" />
      </cc:License>
    </rdf:RDF>
  </metadata>
  <g
     inkscape:label="Layer 1"
     inkscape:groupmode="layer"
     id="layer1"
     transform="translate(0,-719.36216)">
    <g
       id="g916">
      <rect
         rx="8.9191856"
         ry="8.9457436"
         y="719.74011"
         x="0.37795275"
         height="332.24411"
         width="233.24409"
         id="rect4266"
         style="fill:#ffffff;fill-opacity:1;stroke:#808080;stroke-width:0.75590551;stroke-linecap:butt;stroke-linejoin:miter;stroke-miterlimit:4;stroke-dasharray:none;stroke-opacity:1" />
      <g
         transform="matrix(0.07348588,0,0,0.07370838,-248.01731,933.60062)"
         id="g4233"
         style="fill:none;stroke:#000000;stroke-width:3.18132639;stroke-opacity:1" />
      <g
         clip-path="none"
         style="fill:none;stroke:#000000;stroke-width:3.18132639;stroke-opacity:1"
         id="g4211"
         transform="matrix(0.07348588,0,0,0.07370838,-248.01728,933.60062)" />
      <g
         transform="matrix(0.07348588,0,0,0.07370838,-248.01731,933.60062)"
         id="g4227"
         style="fill:none;stroke:#000000;stroke-width:3.18132639;stroke-opacity:1" />
      <path
         inkscape:export-ydpi="95.969437"
         inkscape:export-xdpi="95.969437"
         inkscape:export-filename="D:\DAN\Documents\Projects\Playing Cards\test.png"
         inkscape:connector-curvature="0"
         id="path4884-1"
         d="M 58.629672,814.07624 86.87338,785.73971 58.629672,757.40317 30.385965,785.73971 Z"
         style="fill:#ff0000;fill-opacity:1;stroke:none;stroke-width:1" />
      <path
         inkscape:export-ydpi="95.969437"
         inkscape:export-xdpi="95.969437"
         inkscape:export-filename="D:\DAN\Documents\Projects\Playing Cards\test.png"
         inkscape:connector-curvature="0"
         id="path4884-1-4"
         d="M 58.629676,1014.3212 86.87338,985.98462 58.629676,957.64809 30.385965,985.98462 Z"
         style="fill:#ff0000;fill-opacity:1;stroke:none;stroke-width:1" />
      <path
         inkscape:export-ydpi="95.969437"
         inkscape:export-xdpi="95.969437"
         inkscape:export-filename="D:\DAN\Documents\Projects\Playing Cards\test.png"
         inkscape:connector-curvature="0"
         id="path4884-1-7"
         d="M 58.629672,914.1987 86.87338,885.86217 58.629672,857.52563 30.385965,885.86217 Z"
         style="fill:#ff0000;fill-opacity:1;stroke:none;stroke-width:1" />
      <path
         inkscape:export-ydpi="95.969437"
         inkscape:export-xdpi="95.969437"
         inkscape:export-filename="D:\DAN\Documents\Projects\Playing Cards\test.png"
         inkscape:connector-curvature="0"
         id="path4884-1-40"
         d="M 175.37033,814.07623 203.61404,785.7397 175.37033,757.40316 147.12662,785.7397 Z"
         style="fill:#ff0000;fill-opacity:1;stroke:none;stroke-width:1" />
      <path
         inkscape:export-ydpi="95.969437"
         inkscape:export-xdpi="95.969437"
         inkscape:export-filename="D:\DAN\Documents\Projects\Playing Cards\test.png"
         inkscape:connector-curvature="0"
         id="path4884-1-4-9"
         d="m 175.37033,1014.3212 28.24371,-28.33659 -28.24371,-28.33654 -28.24371,28.33654 z"
         style="fill:#ff0000;fill-opacity:1;stroke:none;stroke-width:1" />
      <path
         inkscape:export-ydpi="95.969437"
         inkscape:export-xdpi="95.969437"
         inkscape:export-filename="D:\DAN\Documents\Projects\Playing Cards\test.png"
         inkscape:connector-curvature="0"
         id="path4884-1-4-1-4"
         d="M 117,864.13747 145.24371,835.80094 117,807.46441 88.756294,835.80094 Z"
         style="fill:#ff0000;fill-opacity:1;stroke:none;stroke-width:1" />
      <path
         inkscape:export-ydpi="95.969437"
         inkscape:export-xdpi="95.969437"
         inkscape:export-filename="D:\DAN\Documents\Projects\Playing Cards\test.png"
         inkscape:connector-curvature="0"
         id="path4884-1-7-8"
         d="m 175.37033,914.1987 28.24371,-28.33653 -28.24371,-28.33654 -28.24371,28.33654 z"
         style="fill:#ff0000;fill-opacity:1;stroke:none;stroke-width:1" />
      <path
         inkscape:connector-curvature="0"
         id="path4884-1-4-5-3"
         d="m 17.205569,780.7021 9.414569,-9.44551 -9.414569,-9.44552 -9.4145688,9.44552 z"
         style="fill:#ff0000;fill-opacity:1;stroke:none;stroke-width:1" />
      <path
         inkscape:connector-curvature="0"
         id="path4884-1-4-5-3-5"
         d="m 216.79443,991.02224 9.41457,9.44556 -9.41457,9.4455 -9.41457,-9.4455 z"
         style="fill:#ff0000;fill-opacity:1;stroke:none;stroke-width:1" />
      <g
         id="text3755-8"
         style="font-style:normal;font-variant:normal;font-weight:bold;font-stretch:normal;font-size:3.77201176px;line-height:0%;font-family:'Levenim MT';-inkscape-font-specification:'Sans Bold';letter-spacing:0px;word-spacing:0px;fill:#ff0000;fill-opacity:1;stroke:none;stroke-width:1"
         transform="scale(1.0298762,0.9709905)"
         aria-label="7">
        <path
           id="path893"
           style="font-size:41.88301086px;line-height:1.25;stroke-width:1"
           d="m 25.847902,752.97249 -7.70991,24.17272 q -0.30676,0.94073 -1.554252,0.94073 h -3.026702 q -0.940732,0 -0.940732,-0.59307 0,-0.57262 3.865181,-11.57509 2.249575,-6.33972 4.478701,-12.65898 h -9.059656 q -0.06135,0.89983 -0.368112,2.61769 -0.28631,0.18406 -0.613521,0.18406 H 8.5466193 q -0.981633,0 -0.981633,-0.71578 0,-0.34766 0.59307,-6.44197 H 25.847902 Z"
           inkscape:connector-curvature="0" />
      </g>
      <g
         id="text3755-2-4"
         style="font-style:normal;font-variant:normal;font-weight:bold;font-stretch:normal;font-size:3.77201176px;line-height:0%;font-family:'Levenim MT';-inkscape-font-specification:'Sans Bold';letter-spacing:0px;word-spacing:0px;fill:#ff0000;fill-opacity:1;stroke:none;stroke-width:1"
         transform="scale(-1.0298762,-0.9709905)"
         aria-label="7">
        <path
           id="path896"
           style="font-size:41.88301086px;line-height:1.25;stroke-width:1"
           d="m -201.36388,-1071.6841 -7.70991,24.1727 q -0.30676,0.9407 -1.55425,0.9407 h -3.02671 q -0.94073,0 -0.94073,-0.593 0,-0.5727 3.86518,-11.5751 2.24958,-6.3398 4.4787,-12.659 h -9.05965 q -0.0614,0.8998 -0.36811,2.6177 -0.28631,0.184 -0.61352,0.184 h -2.37228 q -0.98164,0 -0.98164,-0.7157 0,-0.3477 0.59307,-6.442 h 17.68985 z"
           inkscape:connector-curvature="0" />
      </g>
    </g>
  </g>
</svg>

<svg xmlns="http://www.w3.org/2000/svg" width="234" height="333"><title>Seven of Diamonds Playing Card</title><g transform="translate(0 -719.362)"><rect width="233.244" height="332.244" x=".378" y="719.74" rx="8.919" ry="8.946" style="fill:#fff;fill-opacity:1;stroke:gray;stroke-width:.75590551;stroke-linecap:butt;stroke-linejoin:miter;stroke-miterlimit:4;stroke-dasharray:none;stroke-opacity:1"/><path d="m58.63 814.076 28.243-28.336-28.243-28.337-28.244 28.337ZM58.63 1014.321l28.243-28.336-28.243-28.337-28.244 28.337ZM58.63 914.199l28.243-28.337-28.243-28.336-28.244 28.336ZM175.37 814.076l28.244-28.336-28.244-28.337-28.243 28.337ZM175.37 1014.321l28.244-28.336-28.244-28.337-28.243 28.337zM117 864.137l28.244-28.336L117 807.464l-28.244 28.337ZM175.37 914.199l28.244-28.337-28.244-28.336-28.243 28.336zM17.206 780.702l9.414-9.445-9.414-9.446-9.415 9.446zM216.794 991.022l9.415 9.446-9.415 9.445-9.414-9.445z" style="fill:red;fill-opacity:1;stroke:none;stroke-width:1"/><g aria-label="7" style="font-style:normal;font-variant:normal;font-weight:700;font-stretch:normal;font-size:3.77201176px;line-height:0%;font-family:&quot;Levenim MT&quot;;-inkscape-font-specification:&quot;Sans Bold&quot;;letter-spacing:0;word-spacing:0;fill:red;fill-opacity:1;stroke:none;stroke-width:1"><path d="m25.848 752.972-7.71 24.173q-.307.94-1.554.94h-3.027q-.94 0-.94-.592 0-.573 3.864-11.575 2.25-6.34 4.48-12.66H11.9q-.062.9-.369 2.618-.286.185-.613.185H8.547q-.982 0-.982-.716 0-.348.593-6.442h17.69Z" style="font-size:41.88301086px;line-height:1.25;stroke-width:1" transform="scale(1.02988 .971)"/></g><g aria-label="7" style="font-style:normal;font-variant:normal;font-weight:700;font-stretch:normal;font-size:3.77201176px;line-height:0%;font-family:&quot;Levenim MT&quot;;-inkscape-font-specification:&quot;Sans Bold&quot;;letter-spacing:0;word-spacing:0;fill:red;fill-opacity:1;stroke:none;stroke-width:1"><path d="m-201.364-1071.684-7.71 24.173q-.307.94-1.554.94h-3.027q-.94 0-.94-.593 0-.572 3.865-11.575 2.25-6.34 4.478-12.659h-9.06q-.06.9-.367 2.618-.287.184-.614.184h-2.372q-.982 0-.982-.716 0-.348.593-6.442h17.69z" style="font-size:41.88301086px;line-height:1.25;stroke-width:1" transform="scale(-1.02988 -.971)"/></g></g></svg>
